X:1
%%pagewidth 1200
T:Tennessee Waltz
M:3/4
I:linebreak $
K:D
V:1 treble
L:1/8
 EF | "D"F A3 D E | F A3 de | f3 a fe | "G"d B3 Bc | "D"d2 A2 F2 | B A3 F2 | "A" E4 EF | E4 DE | $
"D" F A3 DE |  F A3 de | f3 a fe |"G" d B3 Bc |"D" d2 A2 F2 | "A7"G F3 E2 | D4 DE | D4 de || $
"D"f3 a f2 |"F#7" e3 f2 e |"G"  d2 B2 (3Bcd |"D" A4 FA | B2 A2 FA | B A3 FA |"A" E4 EF | E4 DE |  $
"D" F A3 DE | F A3 de | f3 a fe | "G" d B3 Bc |"D" d2 A2 F2 |"A7" G F3 E2 |"D" D4 DE | D6 |]
